assets/images/icon-link.svg

<svg fill="none" height="23" viewBox="0 0 24 23" width="24" xmlns="http://www.w3.org/2000/svg"><path clip-rule="evenodd" d="m12.6545 1.88127c1.2259-1.18403 2.8678-1.8391934 4.5721-1.8243837 1.7043.0148098 3.3346.6984077 4.5397 1.9035637 1.2052 1.20515 1.8888 2.83543 1.9036 4.53971s-.6404 3.34619-1.8244 4.57214l-.0183.0186-2.9998 2.9998s-.0001.0001-.0002.0002c-.6589.6591-1.4518 1.1688-2.325 1.4945-.8733.3257-1.8065.4599-2.7361.3933-.9297-.0666-1.8342-.3323-2.6522-.7792-.8179-.4469-1.5302-1.0645-2.08848-1.8108-.49621-.6634-.3607-1.6034.30267-2.0996.66338-.4963 1.60341-.3607 2.09961.3026.3006.4019.6842.7345 1.1246.9751s.9275.3837 1.4281.4196c.5006.0358 1.003-.0364 1.4733-.2118.4702-.1754.8972-.4499 1.252-.8049l.0002-.0002 2.99-2.98993c.6323-.65918.982-1.53961.9741-2.45334-.008-.91769-.3761-1.79553-1.025-2.44446s-1.5268-1.01702-2.4445-1.025c-.9144-.00794-1.7954.34228-2.4548.97551l-1.7116 1.70167c-.5875.58407-1.5372.5813-2.1213-.00619s-.5813-1.53723.0062-2.12131l1.72-1.71zm-4.70334 5.51401c.87329-.32577 1.80642-.4599 2.73614-.39332.9296.06658 1.8341.33232 2.6521.77921.8179.44688 1.5302 1.06446 2.0885 1.81082.4962.66341.3607 1.60341-.3027 2.09961-.6633.4962-1.6034.3607-2.0996-.3027-.3006-.4019-.6841-.7344-1.1246-.975-.4404-.2407-.9274-.3838-1.428-.41961-.50064-.03585-1.0031.03641-1.47333.21181s-.89724.4499-1.25206.8048l-.00019.0002-2.98997 2.99c-.63235.6592-.98205 1.5396-.97411 2.4533.00797.9177.37606 1.7956 1.02499 2.4445s1.52677 1.017 2.44446 1.025c.91373.0079 1.79417-.3418 2.45335-.9741l1.69996-1.7c.5858-.5858 1.5355-.5858 2.1213 0s.5858 1.5355 0 2.1213l-1.71 1.71-.0186.0183c-1.2259 1.184-2.8678 1.8392-4.57208 1.8244s-3.33456-.6984-4.53971-1.9036c-1.20515-1.2051-1.888751-2.8354-1.903561-4.5397s.640351-3.3462 1.824381-4.5721l.01827-.0186 2.99981-2.99981c.00006-.00006.00013-.00013.00019-.00019.65892-.6591 1.45186-1.16879 2.32506-1.49452z" fill-rule="evenodd"/></svg>

<svg width="24" height="23" viewBox="0 0 24 23" fill="none" xmlns="http://www.w3.org/2000/svg">
<path fill-rule="evenodd" clip-rule="evenodd" d="M12.6545 1.88127C13.8804 0.69724 15.5223 0.0420766 17.2266 0.0568863C18.9309 0.0716961 20.5612 0.755294 21.7663 1.96045C22.9715 3.1656 23.6551 4.79588 23.6699 6.50016C23.6847 8.20444 23.0295 9.84635 21.8455 11.0723L21.8272 11.0909L18.8274 14.0907C18.8274 14.0907 18.8273 14.0908 18.8272 14.0909C18.1683 14.75 17.3754 15.2597 16.5022 15.5854C15.6289 15.9111 14.6957 16.0453 13.7661 15.9787C12.8364 15.9121 11.9319 15.6464 11.1139 15.1995C10.296 14.7526 9.5837 14.135 9.02542 13.3887C8.52921 12.7253 8.66472 11.7853 9.32809 11.2891C9.99147 10.7928 10.9315 10.9284 11.4277 11.5917C11.7283 11.9936 12.1119 12.3262 12.5523 12.5668C12.9927 12.8074 13.4798 12.9505 13.9804 12.9864C14.481 13.0222 14.9834 12.95 15.4537 12.7746C15.9239 12.5992 16.3509 12.3247 16.7057 11.9697L16.7059 11.9695L19.6959 8.97957C20.3282 8.32039 20.6779 7.43996 20.67 6.52623C20.662 5.60854 20.2939 4.7307 19.645 4.08177C18.9961 3.43284 18.1182 3.06475 17.2005 3.05677C16.2861 3.04883 15.4051 3.39905 14.7457 4.03228L13.0341 5.73395C12.4466 6.31802 11.4969 6.31525 10.9128 5.72776C10.3287 5.14027 10.3315 4.19053 10.919 3.60645L12.639 1.89645L12.6545 1.88127ZM7.95116 7.39528C8.82445 7.06951 9.75758 6.93538 10.6873 7.00196C11.6169 7.06854 12.5214 7.33428 13.3394 7.78117C14.1573 8.22805 14.8696 8.84563 15.4279 9.59199C15.9241 10.2554 15.7886 11.1954 15.1252 11.6916C14.4619 12.1878 13.5218 12.0523 13.0256 11.3889C12.725 10.987 12.3415 10.6545 11.901 10.4139C11.4606 10.1732 10.9736 10.0301 10.473 9.99429C9.97236 9.95844 9.4699 10.0307 8.99967 10.2061C8.52944 10.3815 8.10243 10.656 7.74761 11.0109L7.74742 11.0111L4.75745 14.0011C4.1251 14.6603 3.7754 15.5407 3.78334 16.4544C3.79131 17.3721 4.1594 18.25 4.80833 18.8989C5.45726 19.5478 6.3351 19.9159 7.25279 19.9239C8.16652 19.9318 9.04696 19.5821 9.70614 18.9498L11.4061 17.2498C11.9919 16.664 12.9416 16.664 13.5274 17.2498C14.1132 17.8356 14.1132 18.7853 13.5274 19.3711L11.8174 21.0811L11.7988 21.0994C10.5729 22.2834 8.931 22.9386 7.22672 22.9238C5.52244 22.909 3.89216 22.2254 2.68701 21.0202C1.48186 19.8151 0.798259 18.1848 0.783449 16.4805C0.768639 14.7762 1.4238 13.1343 2.60783 11.9084L2.6261 11.8898L5.62591 8.88999C5.62597 8.88993 5.62604 8.88986 5.6261 8.8898C6.28502 8.2307 7.07796 7.72101 7.95116 7.39528Z" />
</svg>
